!!! OTL: Literature124
!!! Chapter: 5
!!! Section: IV
!!! Page: 374
!!! Mode: 
!!! Encoder: DJB
**kern
*staff1
*I"Piano
=1-
*clefG2
*k[b-e-]
*g:
*M2/4
8.g\L
16dd\Jk
8dd\
8r
=2
8.g\L
16dd\Jk
8dd\
8r
=3
8g\L
8dd\J
8cc\L
8ee-\J
=4
[4dd\
8dd\]
8r
=5
8.g\L
16dd\Jk
8dd\
8r
=6
8.g\L
16dd\Jk
8dd\
8r
=7
8g\L
24dd\L
24ee-\
24dd\JJ
8cc\L
8ee-\J
=8
[4dd\
8dd\]
8r
=9
8.dd\L
16cc\Jk
8dd\L
8ee-\J
=10
8ff\L
8gg\J
8ff\L
8ee-\J
=11
!!linebreak:original
8dd\L
8cc\J
8b-/L
8a/J
=12
[4g/
8g/]
8r
=13
8f#/L
8a/J
8dd\L
8ff#\J
=14
[2een\
=15
4ee\_
16ee\LL]
16dd\
16ff#\
16een\JJ
=16
4dd\
4r
=17
8gg\
8r
8dd\
8r
=18
8ff\L
8een\J
8cc\
8r
=19
8ff\L
8cc\J
8ee-\L
8dd\J
=20
[4b-\
8b-\]
8r
=21
8bn/L
8a/J
8b\L
8cc\J
=22
!!linebreak:original
8b-/L
8a/J
8b-\L
8cc\J
=23
4dd\
8ee-\L
8dd\J
=24
4dd\
8ee-\L
8ff\J
=25
4gg\
4g/
=26
[4ee-\
8ee-\]
8r
=27
8dd\L
8cc\J
8b-/L
8a/J
=28
2g/
==
*-
